X: 5
T:G-Dur-Lndler #22
M:3/4
L:1/8
S:j.m. schmalnauer: "tanz musik", bhlau, wien 1996 (compa bd. 5) 
C:trad
R:Lndler
K:G
"1"dg|b2d'2a2|c'2 gbba|g2b2"1"f2|a2 gedB
|B2d2A2|c2 GBBD|DB CAAF|G4  :|
|:DG|B2d2A2 |c2 GBBD|DBCAAF|GG,B,DGA
|B2d2A2 |c2 GBBD|DBCAAF|G4  :|
